X:413
T:Reel 413
M:4/4
K:Amaj
L:1/8
C|DFDF E2EC|B,DCA, B,A,G,E,|EDEF E2CE| (3FGA GD CA,A,:|G|A2cA EAcA|EAcA BGGF|A2cA EAcA|BAGB A2AB|cABA cAEA|GABA GEFG|AcBG AGEA|GEDB, CA,A,|
